X: 1
T: The Merry Oddfellows
R: jig
Z: John Chambers <jc:trillian.mit.edu> (from handwritten MS by Cal Howard)
M: 6/8
L: 1/8
K: G
B/c/\
| "G"dBG "D7"ABc | "G"dBG "C"g2e | "G"dBd "Am"cAc | "A7"BGB "D7"ABc \
| "G"dBG "D7"ABc | "G"dBG "C"g2e | "G"dBd "D7"cAF | "G"G3 z2 :|
|: F/E/\
| "G"DGG GBG | "D7"DAA AcA | "G"DGG "Em"GBG | "A7"ABG | "D7"FE_E \
| "G"DGG GBG | "D7"DAA AcA | "G"BdB "D7"cAF | "D7"DEF "G"G2 :|
